X:28
T:The Connaughtman's Rambles
M:6/8
L:1/8
K:AMix
FAA dAA|BAB dAG|FAA def|edB BAG|
FAA dAA|BAB def|gfe dfe|1 dBA BAG :|2dBA B2 d|
fbb faf|fef ded|fbf afa|fed e3|
fbb faa|fef def|gfe dfe|dBA B3 :|
